symbolic/24x24/apps/distributor-logo-rhel.svg

<svg xmlns="http://www.w3.org/2000/svg" width="24" height="24" version="1.1">
 <path style="opacity:0.2" d="m 12.207031,4.5 c -0.665576,0 -0.863366,0.8301444 -1.672851,0.8301444 -0.773508,0 -1.349794,-0.6226084 -2.069336,-0.6226083 -0.701554,0 -1.1504035,0.449165 -1.492188,1.383261 0,0 -0.971736,2.6291854 -1.097656,3.009743 C 5.85701,9.1697314 5.4253745,10.052125 5.4433595,10.121317 3.5185835,10.207807 1,10.55358 1,12.681242 1,16.175451 9.6164985,20.5 16.452148,20.5 21.686816,20.5 23,18.217374 23,16.435673 23,14.999934 21.722457,13.408591 19.419922,12.439899 L 19.167969,11.40128 18.304687,7.8036742 C 18.106813,7.0079632 17.945354,6.6446754 16.488281,5.9527525 15.372992,5.3992157 12.926574,4.5 12.207031,4.5 Z"/>
 <path style="fill:#e73232" d="m 12.207031,4 c -0.665576,0 -0.863366,0.8301444 -1.672851,0.8301444 -0.773508,0 -1.349794,-0.6226084 -2.069336,-0.6226083 -0.701554,0 -1.1504035,0.449165 -1.492188,1.383261 0,0 -0.971736,2.6291854 -1.097656,3.009743 C 5.85701,8.6697314 5.4253745,9.5521246 5.4433595,9.6213168 3.5185835,9.7078075 1,10.05358 1,12.181242 1,15.675451 9.6164985,20 16.452148,20 21.686816,20 23,17.717374 23,15.935673 23,14.499934 21.722457,12.908591 19.419922,11.939899 L 19.167969,10.90128 18.304687,7.3036742 C 18.106813,6.5079632 17.945354,6.1446754 16.488281,5.4527525 15.372992,4.8992157 12.926574,4 12.207031,4 Z"/>
 <path style="fill:#ffffff;opacity:0.2" d="M 12.207031 4 C 11.541455 4 11.344641 4.8300781 10.535156 4.8300781 C 9.7616483 4.8300781 9.1843857 4.2070312 8.4648438 4.2070312 C 7.7632898 4.2070312 7.3144408 4.6557477 6.9726562 5.5898438 C 6.9726562 5.5898438 6.00092 8.2190518 5.875 8.5996094 C 5.85701 8.6688007 5.4253744 9.5519016 5.4433594 9.6210938 C 3.5185834 9.7075844 1 10.053979 1 12.181641 C 1 12.23817 1.0209243 12.296573 1.0253906 12.353516 C 1.2746422 10.519238 3.6227599 10.202904 5.4433594 10.121094 C 5.4253744 10.051902 5.85701 9.1688007 5.875 9.0996094 C 6.00092 8.7190518 6.9726562 6.0898438 6.9726562 6.0898438 C 7.3144408 5.1557477 7.7632898 4.7070312 8.4648438 4.7070312 C 9.1843857 4.7070312 9.7616483 5.3300781 10.535156 5.3300781 C 11.344641 5.3300781 11.541455 4.5 12.207031 4.5 C 12.926574 4.5 15.372992 5.3995882 16.488281 5.953125 C 17.945354 6.6450479 18.106813 7.0070234 18.304688 7.8027344 L 19.167969 11.400391 L 19.419922 12.439453 C 21.597634 13.355631 22.844307 14.827519 22.974609 16.199219 C 22.980969 16.111559 23 16.021201 23 15.935547 C 23 14.499808 21.722457 12.908145 19.419922 11.939453 L 19.167969 10.900391 L 18.304688 7.3027344 C 18.106813 6.5070234 17.945354 6.1450479 16.488281 5.453125 C 15.372992 4.8995882 12.926574 4 12.207031 4 z"/>
 <path style="opacity:0.1" d="m 19.442988,12.457343 c 0.197874,0.915906 0.197874,1.002313 0.197874,1.123281 C 19.640862,15.135936 17.801308,16 15.408831,16 10.012265,16 5.2131945,12.958499 5.2131945,10.953873 c 0,-0.276501 0.053966,-0.553001 0.179886,-0.81222 l 0.431725,-1.0023127 c -0.01799,0.069124 -0.035975,0.1382503 -0.01799,0.2073752 0,1.0195945 4.2414245,4.3721585 9.8718425,4.3721585 1.439084,0 3.566455,-0.293781 3.566455,-1.935502 0,-0.120969 0,-0.259217 -0.03598,-0.380187 z"/>
 <path style="fill:#3f3f3f" d="m 19.442988,11.977002 c 0.197874,0.915906 0.197874,1.002313 0.197874,1.123281 0,1.555314 -1.839554,2.419376 -4.232031,2.419376 -5.396566,0 -10.1956365,-3.041501 -10.1956365,-5.046127 0,-0.2765 0.053966,-0.5529999 0.179886,-0.812219 L 5.8248055,8.659 c -0.01799,0.069124 -0.035975,0.1382501 -0.01799,0.2073749 0,1.0195947 4.2414245,4.3721581 9.8718425,4.3721581 1.439084,0 3.566455,-0.29378 3.566455,-1.9355 0,-0.120969 0,-0.259219 -0.03598,-0.380187 z"/>
</svg>

<svg xmlns="http://www.w3.org/2000/svg" width="24" height="24"><path style="opacity:.2" d="M12.207 4.5c-.666 0-.863.83-1.673.83-.773 0-1.35-.622-2.07-.622-.7 0-1.15.449-1.491 1.383 0 0-.972 2.629-1.098 3.01-.018.069-.45.951-.432 1.02C3.52 10.208 1 10.554 1 12.681 1 16.175 9.616 20.5 16.452 20.5c5.235 0 6.548-2.283 6.548-4.064 0-1.436-1.278-3.027-3.58-3.996l-.252-1.039-.863-3.597c-.198-.796-.36-1.16-1.817-1.851-1.115-.554-3.561-1.453-4.281-1.453z"/><path style="fill:#e73232" d="M12.207 4c-.666 0-.863.83-1.673.83-.773 0-1.35-.622-2.07-.622-.7 0-1.15.449-1.491 1.383 0 0-.972 2.629-1.098 3.01-.018.069-.45.951-.432 1.02C3.52 9.708 1 10.054 1 12.181 1 15.675 9.616 20 16.452 20 21.687 20 23 17.717 23 15.936c0-1.436-1.278-3.027-3.58-3.996l-.252-1.039-.863-3.597c-.198-.796-.36-1.16-1.817-1.851C15.373 4.899 12.927 4 12.207 4z"/><path style="fill:#fff;opacity:.2" d="M12.207 4c-.666 0-.862.83-1.672.83-.773 0-1.35-.623-2.07-.623-.702 0-1.15.449-1.492 1.383 0 0-.972 2.63-1.098 3.01-.018.069-.45.952-.432 1.021C3.52 9.708 1 10.054 1 12.181c0 .057.02.116.025.173.25-1.835 2.598-2.151 4.418-2.233-.018-.07.414-.952.432-1.021.126-.38 1.098-3.01 1.098-3.01.341-.934.79-1.383 1.492-1.383.72 0 1.297.623 2.07.623.81 0 1.006-.83 1.672-.83.72 0 3.166.9 4.281 1.453 1.457.692 1.619 1.054 1.817 1.85l.863 3.597.252 1.04c2.178.916 3.424 2.388 3.555 3.76.006-.088.025-.179.025-.264 0-1.436-1.278-3.028-3.58-3.997l-.252-1.039-.863-3.597c-.198-.796-.36-1.158-1.817-1.85C15.373 4.9 12.927 4 12.207 4z"/><path style="opacity:.1" d="M19.443 12.457c.198.916.198 1.003.198 1.124 0 1.555-1.84 2.419-4.232 2.419-5.397 0-10.196-3.042-10.196-5.046 0-.277.054-.553.18-.812l.432-1.003c-.018.07-.036.139-.018.208 0 1.02 4.241 4.372 9.872 4.372 1.439 0 3.566-.294 3.566-1.936 0-.12 0-.259-.036-.38z"/><path style="fill:#3f3f3f" d="M19.443 11.977c.198.916.198 1.002.198 1.123 0 1.556-1.84 2.42-4.232 2.42-5.397 0-10.196-3.042-10.196-5.046 0-.277.054-.553.18-.813l.432-1.002c-.018.07-.036.138-.018.207 0 1.02 4.241 4.373 9.872 4.373 1.439 0 3.566-.294 3.566-1.936 0-.12 0-.26-.036-.38z"/></svg>
